X:491
T:Polska # 491
T: efter Melker Andersson
M:3/4
L:1/16
Q: 120
K: G
B2 | d2d2 B2GB d2d2 | d2d2 B2GB d2d2 | e2e2 c2c2 A2A2 | f2f2 (e2fe) d4 |
d2d2 B2GB d2d2 | d2d2 B2GB d2d2 | e2e2 c2c2 A2A2 | FDF2 G6 :: g2 | b2b2 g2fg e2e2 |
a2a2 (f2{gf})ef d4 | e2e2 c2c2 A2A2 | d2d2 (B2{cB})AB G4 | b2b2 g2fg e2e2 | a2a2 (f2{gf})ef d4 |
e2e2 c2c2 A2A2 | FDF2 G6 :|

